build/system/DeleteOutline.svg

<svg xmlns="http://www.w3.org/2000/svg" fill="none" viewBox="0 0 24 24" focusable="false"><path d="M0 0H24V24H0z"/><path fill="#74767B" fill-rule="evenodd" d="M12.6502 2.6699C12.6502 2.31091 12.3592 2.0199 12.0002 2.0199C11.6412 2.0199 11.3502 2.31091 11.3502 2.6699L11.3502 4.65002L4.33018 4.65002C3.97119 4.65002 3.68018 4.94104 3.68018 5.30002C3.68018 5.65901 3.97119 5.95002 4.33018 5.95002L5.0228 5.95002L5.78018 17.44C5.88018 19.02 7.19018 20.25 8.77018 20.25L15.1302 20.25C16.7102 20.25 18.0302 19.02 18.1202 17.44L18.896 5.95002L19.6802 5.95002C20.0392 5.95002 20.3302 5.65901 20.3302 5.30002C20.3302 4.94104 20.0392 4.65002 19.6802 4.65002L12.6502 4.65002L12.6502 2.6699ZM7.08018 17.35L6.3779 5.95002L17.5425 5.95002L16.8402 17.36C16.7802 18.25 16.0402 18.95 15.1402 18.95L8.78018 18.95C7.88018 18.95 7.14018 18.25 7.08018 17.35ZM10.1802 8.47009C10.5391 8.47009 10.8302 8.76111 10.8302 9.12009L10.8302 15.4701C10.8302 15.8291 10.5391 16.1201 10.1802 16.1201C9.82117 16.1201 9.53015 15.8291 9.53015 15.4701L9.53015 9.12009C9.53015 8.76111 9.82117 8.47009 10.1802 8.47009ZM14.4801 9.12009C14.4801 8.76111 14.1891 8.47009 13.8301 8.47009C13.4712 8.47009 13.1801 8.76111 13.1801 9.12009L13.1801 15.4701C13.1801 15.8291 13.4712 16.1201 13.8301 16.1201C14.1891 16.1201 14.4801 15.8291 14.4801 15.4701L14.4801 9.12009Z"/></svg>

<svg xmlns="http://www.w3.org/2000/svg" fill="none" viewBox="0 0 24 24" focusable="false"><path fill="#74767B" fill-rule="evenodd" d="M12.65 2.66c0-.35-.3-.65-.65-.65-.36 0-.65.3-.65.65v1.99H4.33c-.36 0-.65.29-.65.65 0 .35.29.65.65.65h.69l.76 11.49c.1 1.58 1.4 2.81 2.99 2.81h6.36c1.57 0 2.9-1.23 2.99-2.81l.77-11.49h.79c.35 0 .65-.3.65-.65 0-.36-.3-.65-.65-.65h-7.03zM7.08 17.35l-.71-11.4h11.17l-.7 11.41c-.06.89-.8 1.59-1.7 1.59H8.78c-.9 0-1.64-.7-1.7-1.6m3.1-8.88c.35 0 .65.29.65.65v6.35c0 .35-.3.65-.65.65-.36 0-.65-.3-.65-.65V9.12c0-.36.29-.65.65-.65m4.3.65c0-.36-.3-.65-.65-.65-.36 0-.65.29-.65.65v6.35c0 .35.29.65.65.65.35 0 .65-.3.65-.65z"/></svg>
